X:328
T:Untitled RH.328
R:jig march
S:Rev.R.Harrison's MS,c1815,Cumbria
O:England
A:Temple Sowerby,Cumbria
Z:vmp.Simon Wilson. Review PJH, 2008.
M:6/8
L:1/8
Q:3/8=120
K:D
A|F/G/AA A2d|BAd A2G|F/G/AA A2g|f3 e2A|!
F/G/AA A2d|BGd A2b|afa gfe|ddd d2:|!
a|aba d'2a|f3 d2e|efe a2e|c3 A>Bc|!
d3 B>cd|e3 c>de|fga agf|edc BAG|!
F/G/AA A2d|BAd A2G|F/G/AA A2g|f3 e2A|!
F/G/AA A2d|BGd A2b|afa gfe|ddd d2|]

